packages/astro-components-stencil/src/icons/view-week.svg

<svg xmlns="http://www.w3.org/2000/svg" viewBox="0 0 24 24"><g xmlns="http://www.w3.org/2000/svg" id="view-week" fill-rule="nonzero">
            <path d="M6 5H3c-.55 0-1 .45-1 1v12c0 .55.45 1 1 1h3c.55 0 1-.45 1-1V6c0-.55-.45-1-1-1zm14 0h-3c-.55 0-1 .45-1 1v12c0 .55.45 1 1 1h3c.55 0 1-.45 1-1V6c0-.55-.45-1-1-1zm-7 0h-3c-.55 0-1 .45-1 1v12c0 .55.45 1 1 1h3c.55 0 1-.45 1-1V6c0-.55-.45-1-1-1z"/>
        </g></svg>

<svg width="24" height="24" viewBox="0 0 24 24" fill="none" xmlns="http://www.w3.org/2000/svg">
<path fill-rule="evenodd" clip-rule="evenodd" d="M6 5H3C2.45 5 2 5.45 2 6V18C2 18.55 2.45 19 3 19H6C6.55 19 7 18.55 7 18V6C7 5.45 6.55 5 6 5ZM20 5H17C16.45 5 16 5.45 16 6V18C16 18.55 16.45 19 17 19H20C20.55 19 21 18.55 21 18V6C21 5.45 20.55 5 20 5ZM10 5H13C13.55 5 14 5.45 14 6V18C14 18.55 13.55 19 13 19H10C9.45 19 9 18.55 9 18V6C9 5.45 9.45 5 10 5Z" fill="black"/>
</svg>
